X: 23751
T: Little Bridget Flynn
R: hornpipe
M: 4/4
K: Edorian
ef|g2 gg f2 gf|ef ed B2 ef|g2 gg ff ff|e4z2ef|
g2 gg f2 gf|ef ed B2 ef|g2 gg f2 b2|e4z2ga|
b6fg|a6ef|gg gg gf ed|e4z2ef|
g2 gg f2 gf|ef ed B2 ef|g2 gg f2 b2|e4z2|

